static/images/navigation/company/diamond.svg

<svg height="57.669" viewBox="0 0 58.253 57.669" width="58.253" xmlns="http://www.w3.org/2000/svg"><g fill="#414042"><path d="m13.391 26.513a.819.819 0 0 1 -.655-.326l-28.3-37.349a.825.825 0 0 1 0-.994l14.147-18.672a.825.825 0 0 1 .657-.326h28.3a.825.825 0 0 1 .657.326l14.154 18.673a.825.825 0 0 1 0 .994l-28.3 37.349a.819.819 0 0 1 -.655.326m-27.27-38.17 27.27 35.984 27.27-35.984-13.533-17.851h-27.484z" transform="translate(15.735 31.155)"/><path d="m10.025 9.03h-20.982a.826.826 0 0 1 -.715-.413.827.827 0 0 1 0-.826l10.494-17.991a.823.823 0 0 1 .711-.409.826.826 0 0 1 .713.409l10.49 17.992a.822.822 0 0 1 -.711 1.238m-19.549-1.647h18.116l-9.059-15.536z" transform="translate(29.634 11.123)"/><path d="m2.081 9.265a.824.824 0 0 1 -.808-.665l-3.7-18.5a.823.823 0 0 1 .646-.968.827.827 0 0 1 .97.644l3.7 18.504a.823.823 0 0 1 -.646.968.811.811 0 0 1 -.163.017" transform="translate(16.596 10.888)"/><path d="m.379 9.266a.944.944 0 0 1 -.159-.015.825.825 0 0 1 -.65-.966l3.619-18.507a.821.821 0 0 1 .966-.65.824.824 0 0 1 .65.966l-3.619 18.506a.823.823 0 0 1 -.807.665" transform="translate(39.28 10.888)"/><path d="m26.4.757h-56.6a.823.823 0 0 1 -.824-.824.823.823 0 0 1 .824-.823h56.6a.823.823 0 0 1 .824.824.823.823 0 0 1 -.824.823" transform="translate(31.025 19.564)"/><path d="m5.182 18.005a.824.824 0 0 1 -.792-.6l-10.449-37.518a.821.821 0 0 1 .572-1.013.823.823 0 0 1 1.014.572l10.45 37.515a.821.821 0 0 1 -.794 1.044" transform="translate(23.943 39.663)"/><path d="m.379 18.005a.833.833 0 0 1 -.222-.03.823.823 0 0 1 -.57-1.016l10.53-37.515a.825.825 0 0 1 1.016-.57.824.824 0 0 1 .57 1.014l-10.532 37.512a.823.823 0 0 1 -.792.6" transform="translate(28.748 39.664)"/></g></svg>

<?xml version="1.0" encoding="UTF-8"?>
<svg xmlns="http://www.w3.org/2000/svg" width="58.253" height="57.669" viewBox="0 0 58.253 57.669">
  <g id="Group_1324" data-name="Group 1324" transform="translate(-2635 166.846)">
    <g id="Group_1103" data-name="Group 1103" transform="translate(2635 -166.845)">
      <path id="Path_2441" data-name="Path 2441" d="M13.391,26.513a.819.819,0,0,1-.655-.326l-28.3-37.349a.825.825,0,0,1,0-.994L-1.417-30.828a.825.825,0,0,1,.657-.326h28.3a.825.825,0,0,1,.657.326L42.351-12.155a.825.825,0,0,1,0,.994l-28.3,37.349a.819.819,0,0,1-.655.326m-27.27-38.17,27.27,35.984,27.27-35.984L27.133-29.507H-.351Z" transform="translate(15.735 31.154)" fill="#414042"></path>
    </g>
    <g id="Group_1104" data-name="Group 1104" transform="translate(2652.854 -166.334)">
      <path id="Path_2442" data-name="Path 2442" d="M10.025,9.03H-10.957a.826.826,0,0,1-.715-.413.827.827,0,0,1,0-.826L-1.178-10.2a.823.823,0,0,1,.711-.409.826.826,0,0,1,.713.409L10.736,7.792a.822.822,0,0,1-.711,1.238M-9.524,7.383H8.592L-.467-8.153Z" transform="translate(11.78 10.611)" fill="#414042"></path>
    </g>
    <g id="Group_1105" data-name="Group 1105" transform="translate(2649.151 -166.845)">
      <path id="Path_2443" data-name="Path 2443" d="M2.081,9.265A.824.824,0,0,1,1.273,8.6l-3.7-18.5a.823.823,0,0,1,.646-.968.827.827,0,0,1,.97.644L2.889,8.28a.823.823,0,0,1-.646.968.811.811,0,0,1-.163.017" transform="translate(2.445 10.887)" fill="#414042"></path>
    </g>
    <g id="Group_1106" data-name="Group 1106" transform="translate(2673.835 -166.846)">
      <path id="Path_2444" data-name="Path 2444" d="M.379,9.266A.944.944,0,0,1,.22,9.251a.825.825,0,0,1-.65-.966L3.189-10.222a.821.821,0,0,1,.966-.65.824.824,0,0,1,.65.966L1.186,8.6a.823.823,0,0,1-.807.665" transform="translate(0.445 10.888)" fill="#414042"></path>
    </g>
    <g id="Group_1107" data-name="Group 1107" transform="translate(2635 -148.172)">
      <path id="Path_2445" data-name="Path 2445" d="M26.4.757H-30.2a.823.823,0,0,1-.824-.824A.823.823,0,0,1-30.2-.89H26.4a.823.823,0,0,1,.824.824A.823.823,0,0,1,26.4.757" transform="translate(31.025 0.89)" fill="#414042"></path>
    </g>
    <g id="Group_1108" data-name="Group 1108" transform="translate(2652.854 -148.339)">
      <path id="Path_2446" data-name="Path 2446" d="M5.182,18.005a.824.824,0,0,1-.792-.6L-6.059-20.113a.821.821,0,0,1,.572-1.013.823.823,0,0,1,1.014.572L5.977,16.961a.821.821,0,0,1-.794,1.044" transform="translate(6.089 21.156)" fill="#414042"></path>
    </g>
    <g id="Group_1109" data-name="Group 1109" transform="translate(2663.303 -148.339)">
      <path id="Path_2447" data-name="Path 2447" d="M.379,18.005a.833.833,0,0,1-.222-.03.823.823,0,0,1-.57-1.016L10.117-20.556a.825.825,0,0,1,1.016-.57.824.824,0,0,1,.57,1.014L1.171,17.4a.823.823,0,0,1-.792.6" transform="translate(0.445 21.157)" fill="#414042"></path>
    </g>
  </g>
</svg>
